X:1
T:Kristus Karalis
T:Mainz Gesangbuch, 1870 HARM. VLADISLAVS VIŠTELlS
T:Ich glaub an Gott Anonīms Atdz. JANĪNA BABRE
T:Kristus Karalis
C:Mainz Gesangbuch, 1870
C:HARM. VLADISLAVS VIŠTELlS
Z:Ich glaub an Gott
Z:Anonīms
Z:Atdz. JANĪNA BABRE
%%score { ( 1 2 ) | ( 3 4 ) }
L:1/8
Q:1/4=100
M:4/4
K:F
V:1 treble nm="P1"
V:2 treble 
V:3 bass 
V:4 bass 
V:1
!mf!"^Moderato" C2 | F2 G2 (AB) c2 | B2 A2 G2 A2 | A2 F2 B2 A2 | G4 F2 C2 | F2 G2 (AB) c2 | %6
w: 1.|Jē- zus Kris- * tus,|Pes- tī- tājs, kam|pie- der vi- sa|sla- va. Tu|1. bējs mū- * su|
 B2 A2 G2 A2 | A2 F2 B2 A2 | G4 F2 z2 ||!f! c4 c2 c2 | d4 d4 | B4 A2 G2 | c4 c4 | C4 F2 A2 | %14
w: dvē- se- lēm, Tev|pes- tī- ša- nas|va- ra.|1.\-3. tus lai|va- da,|Kris- tus lai|val- da,|Kris- tum lai|
 c4 B2 A2 | G4 G4 | F6 |] %17
w: vie- nam ir|uz- va-|ra!|
V:2
 C2 | C2 E2 F2 F2 | F2 F2 D2 E2 | F2 D2 F2 F2 | E4 C2 C2 | C2 E2 F2 F2 | F2 F2 D2 E2 | %7
w: |||||||
w: 3.|De- bess Tēvs un|Baz- nī- ca, mēs|uz- ti- cī- bu|so- lam. Tu|3. su Val- dnieks|vie- nī- gais, lai|
 F2 D2 F2 F2 | E4 C2 x2 || F4 E2 E2 | F4 G4 | G4 F2 D2 | E4 F4 | C4 C2 F2 | E4 D2 C2 | E4 E4 | %16
w: |||||||||
w: dzie- dam Ta- vam|go- dam:||||||||
 C6 |] %17
w: |
w: |
V:3
!mf! C2 | C2 C2 C2 C2 | D2 C2 B,2 C2 | C2 B,2 D2 D2 | C2 B,2 A,2 C2 | C2 C2 C2 C2 | D2 C2 B,2 C2 | %7
 C2 B,2 D2 D2 | C2 B,2 A,2 z2 ||!f! A,4 G,2 C2 | B,4 B,4 | D4 C2 B,2 | A,4 A,4 | A,4 A,2 C2 | %14
 C4 B,2 A,2 | C4 B,4 | A,6 |] %17
V:4
 C2 | A,2 G,2 F,G, A,2 | B,2 A,2 B,2 A,2 | F,2 F,2 B,,2 B,,2 | C,4 F,2 C2 | A,2 G,2 F,G, A,2 | %6
 B,2 A,2 B,2 A,2 | F,2 F,2 B,,2 B,,2 | C,4 F,2 x2 || [F,,F,]4 [G,,G,]2 [A,,A,]2 | B,,4 [G,,G,]4 | %11
 E,4 F,2 G,2 | A,4 F,4 | F,4 F,2 F,2 | C,4 D,2 F,2 | C,4 C,4 | F,6 |] %17

